X: 17617
T: Hogties
R: reel
M: 4/4
K: Adorian
|:edeg A2 gf|edef g2 fg|e2 de A2 ag|edeg BA A2|
edeg A2 gf|edef g2 fg|a2 ge degd|egdg BA A2:|
|:ae e2 a2 ge|dBde g2 fg|ae e2 a2 ge|d2 eg BA A2|
ae e2 a2 ge|dBde g2 fg|a2 ge degd|egdg BA A2:|
|:eA A2 eAgA|A2 ef g2 fg|eA A2 eAag|egdg BA A2|
eA A2 eAgA|A2 ef g2 fg|aAge degd|egdg BA A2:|
|:aA A2 a2 ge|dBde g2 fg|aA A2 a2 ge|d2 eg BA A2|
aA A2 a2 ge|dBde g2 fg|a2 ge degd|egdg BA A2:|

